src/topics/icons/chai.svg

<svg height="296" preserveAspectRatio="xMidYMid" viewBox="0 0 256 296" width="256" xmlns="http://www.w3.org/2000/svg" xmlns:xlink="http://www.w3.org/1999/xlink"><linearGradient id="a" x1="50%" x2="50%" y1="45.226802%" y2="100%"><stop offset="0" stop-color="#f7f6f3"/><stop offset="1" stop-color="#fef6d5"/></linearGradient><path d="m11.071 215.711 116.926 67.509 116.932-67.509v-135.015l-116.932-67.507-116.926 67.507zm116.926 80.289-127.997-73.9v-147.794l127.997-73.902 128.003 73.902v147.794z" fill="#a1070c"/><path d="m9.579 79.833 118.421-68.37 118.421 68.37v136.741l-118.421 68.37-118.421-68.37z" fill="url(#a)"/><path d="m182.332279 98.173325c0 5.371413-1.060132 10.707408-3.180426 16.008145-2.120295 5.300736-4.964981 10.212678-8.534144 14.735974-3.569162 4.523295-7.686006 8.481119-12.350654 11.87359-4.664649 3.392472-9.505915 5.830774-14.523946 7.31498l-2.226298-3.710497c2.968412-1.484206 5.689416-3.392443 8.163093-5.724767s4.59394-4.964984 6.360852-7.898058c1.766913-2.933074 3.127415-6.042793 4.081547-9.32925.954133-3.286456 1.431192-6.62587 1.431192-10.018342 0-3.887207-.565403-7.562329-1.696227-11.025477-1.130824-3.4631477-2.791697-6.4845222-4.982668-9.064214s-4.894306-4.6116104-8.110086-6.0958166c-3.21578-1.4842063-6.908572-2.2262983-11.078484-2.2262983-5.088707 0-9.753286.989456-13.993875 2.9683977-4.240589 1.9789416-8.057062 4.6469391-11.449534 8.0040722-3.392471 3.3571332-6.34317 7.208944-8.852186 11.555548-2.5090151 4.346604-4.5939402 8.905169-6.2548376 13.675832-1.6608975 4.770663-2.9153864 9.594261-3.7635042 14.470939-.8481179 4.876677-1.2721704 9.47058-1.2721704 13.781846 0 4.381942.4593902 8.90517 1.3781846 13.569818.9187943 4.664648 2.2616275 9.258551 4.0285397 13.781846s3.9578504 8.799159 6.5728809 12.827719c2.61503 4.028559 5.636404 7.562331 9.064214 10.60142s7.244283 5.459722 11.449534 7.261973c4.205251 1.80225 8.781485 2.703362 13.728839 2.703362 3.392471 0 6.696548-.45939 9.912328-1.378185 3.21578-.918794 6.30783-2.155614 9.276242-3.710497 2.968413-1.554883 5.777761-3.392444 8.42813-5.512738 2.650368-2.120295 5.106339-4.417246 7.367987-6.890924l3.498468 3.392455c-3.109765 4.099236-6.802556 8.039391-11.078484 11.820583-4.275927 3.781193-8.887499 7.138275-13.834853 10.07135-4.947354 2.933074-10.12433 5.265363-15.531081 6.996937s-10.760415 2.597348-16.061151 2.597348c-5.159384 0-10.01832-.901112-14.576953-2.703362-4.5586338-1.802251-8.7461529-4.240553-12.5626832-7.31498-3.8165304-3.074427-7.2266198-6.678874-10.2303705-10.813449-3.0037508-4.134574-5.5480662-8.53412-7.6330226-13.198768s-3.6751535-9.470577-4.7706391-14.417931c-1.0954855-4.947355-1.6432201-9.788621-1.6432201-14.523946 0-6.855619 1.1484757-13.905493 3.4454616-21.149833 2.2969858-7.24434 5.4597112-14.276546 9.4882711-21.096827 4.0285598-6.820281 8.7814823-13.269414 14.2589101-19.347592 5.4774279-6.0781775 11.3788257-11.3788346 17.7043717-15.9021298 6.325546-4.5232953 12.933698-8.1100732 19.824656-10.7604415 6.890957-2.6503683 13.764143-3.9755326 20.619762-3.9755326 4.240589 0 8.198413.61841 11.873591 1.8552485 3.675177 1.2368386 6.855571 3.0213931 9.541278 5.3537172s4.805969 5.2300167 6.360852 8.6931646 2.332313 7.4209719 2.332313 11.8735906z" fill="#a1070c"/></svg>

<?xml version="1.0" encoding="UTF-8" standalone="no" ?>
<svg width="256px" height="296px" viewBox="0 0 256 296" version="1.1" xmlns="http://www.w3.org/2000/svg" xmlns:xlink="http://www.w3.org/1999/xlink" preserveAspectRatio="xMidYMid">
    <defs>
        <linearGradient x1="50%" y1="45.2268017%" x2="50%" y2="100%" id="linearGradient-1">
            <stop stop-color="#F7F6F3" offset="0%"></stop>
            <stop stop-color="#FEF6D5" offset="100%"></stop>
        </linearGradient>
    </defs>
    <g>
        <path d="M11.071,215.711 L127.997,283.22 L244.929,215.711 L244.929,80.696 L127.997,13.189 L11.071,80.696 L11.071,215.711 L11.071,215.711 Z M127.997,296 L0,222.1 L0,74.306 L127.997,0.404 L256,74.306 L256,222.1 L127.997,296 L127.997,296 Z" fill="#A1070C"></path>
        <path d="M9.579,79.833 L128,11.463 L246.421,79.833 L246.421,216.574 L128,284.944 L9.579,216.574 L9.579,79.833" fill="url(#linearGradient-1)"></path>
        <path d="M182.332279,98.173325 C182.332279,103.544738 181.272147,108.880733 179.151853,114.18147 C177.031558,119.482206 174.186872,124.394148 170.617709,128.917444 C167.048547,133.440739 162.931703,137.398563 158.267055,140.791034 C153.602406,144.183506 148.76114,146.621808 143.743109,148.106014 L141.516811,144.395517 C144.485223,142.911311 147.206227,141.003074 149.679904,138.67075 C152.153581,136.338426 154.273844,133.705766 156.040756,130.772692 C157.807669,127.839618 159.168171,124.729899 160.122303,121.443442 C161.076436,118.156986 161.553495,114.817572 161.553495,111.4251 C161.553495,107.537893 160.988092,103.862771 159.857268,100.399623 C158.726444,96.9364753 157.065571,93.9151008 154.8746,91.335409 C152.683629,88.7557172 149.980294,86.7237986 146.764514,85.2395924 C143.548734,83.7553861 139.855942,83.0132941 135.68603,83.0132941 C130.597323,83.0132941 125.932744,84.0027501 121.692155,85.9816918 C117.451566,87.9606334 113.635093,90.6286309 110.242621,93.985764 C106.85015,97.3428972 103.899451,101.194708 101.390435,105.541312 C98.8814199,109.887916 96.7964948,114.446481 95.1355974,119.217144 C93.4746999,123.987807 92.220211,128.811405 91.3720932,133.688083 C90.5239753,138.56476 90.0999228,143.158663 90.0999228,147.469929 C90.0999228,151.851871 90.559313,156.375099 91.4781074,161.039747 C92.3969017,165.704395 93.7397349,170.298298 95.5066471,174.821593 C97.2735593,179.344888 99.4644975,183.620752 102.079528,187.649312 C104.694558,191.677871 107.715932,195.211643 111.143742,198.250732 C114.571552,201.289821 118.388025,203.710454 122.593276,205.512705 C126.798527,207.314955 131.374761,208.216067 136.322115,208.216067 C139.714586,208.216067 143.018663,207.756677 146.234443,206.837882 C149.450223,205.919088 152.542273,204.682268 155.510685,203.127385 C158.479098,201.572502 161.288446,199.734941 163.938815,197.614647 C166.589183,195.494352 169.045154,193.197401 171.306802,190.723723 L174.80527,194.116178 C171.695505,198.215414 168.002714,202.155569 163.726786,205.936761 C159.450859,209.717954 154.839287,213.075036 149.891933,216.008111 C144.944579,218.941185 139.767603,221.273474 134.360852,223.005048 C128.954101,224.736622 123.600437,225.602396 118.299701,225.602396 C113.140317,225.602396 108.281381,224.701284 103.722748,222.899034 C99.1641142,221.096783 94.9765951,218.658481 91.1600648,215.584054 C87.3435344,212.509627 83.933445,208.90518 80.9296943,204.770605 C77.9259435,200.636031 75.3816281,196.236485 73.2966717,191.571837 C71.2117153,186.907189 69.6215182,182.10126 68.5260326,177.153906 C67.4305471,172.206551 66.8828125,167.365285 66.8828125,162.62996 C66.8828125,155.774341 68.0312882,148.724467 70.3282741,141.480127 C72.6252599,134.235787 75.7879853,127.203581 79.8165452,120.3833 C83.845105,113.563019 88.5980275,107.113886 94.0754553,101.035708 C99.5528832,94.9575305 105.454281,89.6568734 111.779827,85.1335782 C118.105373,80.6102829 124.713525,77.023505 131.604483,74.3731367 C138.49544,71.7227684 145.368626,70.3976041 152.224245,70.3976041 C156.464834,70.3976041 160.422658,71.0160141 164.097836,72.2528526 C167.773013,73.4896912 170.953407,75.2742457 173.639114,77.6065698 C176.324821,79.9388939 178.445083,82.8365865 179.999966,86.2997344 C181.554849,89.7628823 182.332279,93.7207063 182.332279,98.173325 L182.332279,98.173325 Z" fill="#A1070C"></path>
    </g>
</svg>
